X:19
T:Mississippi Sawyer (#014)
C:Traditional
M:4/4
L:1/8
K:D
|F2|:"D"A2 AF A2 AF|A2 AF BA A2|"G"B2 BB B2 BB|B2 BB B2 BB
|"D"F2 FD F2 FD|F2 FD "G"BF B2|"A"e2 ee e2 e2|"D"D2 DD D2 F2:||:"D"D2 DD D2 D2
|D2 FF D2 FF|D2 FF A2 A2|"A"e2 EE e2 ee|e2 ee "A7"e2 e2|"D"D2 FF D2 FF
|D2 FF A2 A2|"A"e2 ee e2 e2|"D"D6 D2:|"D"D6 z2|
